svgs/google_home.svg

<svg width="24" height="24" viewBox="0 0 24 24" fill="none" xmlns="http://www.w3.org/2000/svg">
<path d="M2.67741 9.78718L11.0857 1.37888C11.5909 0.873706 12.4099 0.873706 12.9151 1.37888L15.0726 3.53645L2.29852 16.3106V10.7019C2.29852 10.3588 2.4348 10.0297 2.67741 9.78718Z" fill="#FFF1C0"/>
<path d="M13.4147 8.02289L16.4865 4.95102L21.3226 9.78711C21.5651 10.0296 21.7015 10.3582 21.7015 10.7012V19.707C21.7015 20.4215 21.123 21 20.4085 21H17.3362V11.9453L13.4147 8.02289Z" fill="#FFF1C0"/>
<path d="M6.66437 14.7792L2.29913 19.1444V19.707C2.29913 20.4215 2.87769 21 3.5921 21H16.3362L15.3362 21V16.6348H6.66437L6.66437 14.7792Z" fill="#FFF1C0"/>
</svg>

<svg xmlns="http://www.w3.org/2000/svg" width="24" height="24" fill="none" viewBox="0 0 24 24"><path fill="#FFF1C0" d="m2.677 9.787 8.409-8.408a1.294 1.294 0 0 1 1.83 0l2.157 2.157L2.299 16.311V10.7c0-.342.136-.671.378-.914m10.738-1.763 3.072-3.072 4.836 4.836c.242.243.378.571.378.914v9.006c0 .715-.578 1.293-1.293 1.293h-3.072v-9.055l-3.921-3.922M6.664 14.78 2.3 19.143v.563c0 .715.579 1.293 1.293 1.293h12.744-1v-4.365H6.664v-1.856"/></svg>
